icon/cg/toggle-square-off.svg

<svg viewBox="0 0 24 24" fill="none" xmlns="http://www.w3.org/2000/svg" height="1em" width="1em">
  <path d="M15 9C14.4477 9 14 9.44772 14 10V14C14 14.5523 14.4477 15 15 15H19C19.5523 15 20 14.5523 20 14V10C20 9.44772 19.5523 9 19 9H15Z" fill="currentColor"/>
  <path fill-rule="evenodd" clip-rule="evenodd" d="M0 7C0 5.89543 0.895431 5 2 5H22C23.1046 5 24 5.89543 24 7V17C24 18.1046 23.1046 19 22 19H2C0.89543 19 0 18.1046 0 17V7ZM2 7H22V17H2L2 7Z" fill="currentColor"/>
</svg>

<svg width="24" height="24" fill="none" xmlns="http://www.w3.org/2000/svg"><path d="M15 9a1 1 0 0 0-1 1v4a1 1 0 0 0 1 1h4a1 1 0 0 0 1-1v-4a1 1 0 0 0-1-1h-4Z" fill="currentColor"/><path fill-rule="evenodd" clip-rule="evenodd" d="M0 7a2 2 0 0 1 2-2h20a2 2 0 0 1 2 2v10a2 2 0 0 1-2 2H2a2 2 0 0 1-2-2V7Zm2 0h20v10H2V7Z" fill="currentColor"/></svg>
